X:1
T:Music From CARMEN
T:Music From CARMEN
T:Georges BIZET
T:Arranged by RICHARD SAUCEDO ACCORDEON
C:Arranged by RICHARD SAUCEDO
L:1/8
M:2/4
K:F
V:1 treble nm="Mezzo-soprano" snm="Mzs."
V:1
"^Allegretto \"Habanera\"" z4 | z2!mp! DD | D z DD | D z A,A, | A, z A,A, | B, z DD | D z DD | %7
 D z B,B, | G, z G,G, | F, z DD | D z DD | D z A,A, | A, z A,A, | B, z DD | D z DD | D z B,B, | %16
 G, z G,G, | F, z!mf! .^F.F | (3^FFF FF | ^F z/ F/ DD | (DE/^F/) .D.D | D z .G.G | (3GGG GG | %23
 E z/ E/ DD | (^CD/)E/ .C.C | D z/ (A,/ .D).E | D z DA, | ^F z DE | ^F z GF | E z G,=B, | %30
 E z E=B, | G, z E^F | G z AG | ^F!ff! z/ (A,/ .D).E | D z!p! .D.A, | ^F z .D.E | ^F z .G.F | %37
 E!ff! z .G,.=B, | E z!p! .E.=B, | G, z!<(! .E.^F!<)! | %40
[M:3/4]!f!"^rall." !>!G z !fermata!z2 !fermata!z2 |[M:2/4]"^a tempo" D z .D.A, | %42
 ^F z/ (E/ .D) !fermata!z ||[K:Bb][M:4/4]"^Andantino \"La fleur\""!mp! B"_legato" B2 B B B2 B | %44
 A A2 A A A2 A | G G2 G G G2 G | F F2 F F F2 F | E E2 E E E2 E | D D2 D G G2 G | ^G G2 G A A2 A | %50
 B B2 B B2- B z | z8 | z8 | z8 | z8 | z8 | z8 | z8 | z4 z2!mf! (A>B) | (B2 f4) (ed) | %60
 (dcde) (G2 _A2) | (G2 e4) (dc) | (cBcd) (F2 ^F2) | (F2!>(! d4) (c!mp!B)!>)! | %64
"^molto rall." (BAB)c (FA)Bc |"^Lent" (d6 c2) | (c4 B4- |!>(! !fermata!B8-!>)! || %68
!pp!"^Allegro" B) z z2 z4 | z!f! .B.BB .B z z2 | z .B.BB .B z z2 | z .=B.BB .B z z2 | %72
 z .G.GG .G z z2 | .c !>!c2 .c .B z z2 | .A !>!A2 .A .B z z2 | !>!c2 !>!_A2 !>!c2 !>!c2 | %76
 .c.c z .A .B z !>!G z ||[K:Eb][M:2/4]"^\"Toréador\""!ff! B2"_marcato" c>B | G2 G2 | G>F G>A | G4 | %81
 A2 F>B | G4 | E2 C>F | B,4 |!p!"_sub." F4 | (Fc) BA | (GF) GA | G4 | (D2 G2) | G2 (^F>=A) | %91
!<(! d4!<)! | e4 | z!f! =e ^de | =A=B c2- | c=B .G.=e | d4 | z!ff! G .d.c | %98
"^rall." =B z !fermata!d2 |[M:4/4]"^a tempo" !>!G!>!G !>!G2- G^FGF | !>!G!>!G !>!G2- G^FGF | %101
 !>!G z z2 z4 | !>!G z z2 z4 |!<(! G,8-!<)! | G,8 |!ff! !>!G z z2 z4 |] %106

